!!!COM: Music21
!!!OTL: mazurka_Sally-In-Our-Alley
!!!OMV: mazurka_Sally-In-Our-Alley
**kern
*clefG2
*k[f#c#]
*D:
*M3/4
=1
8a
=
8aL
8ddJ
4dd
8cc#L
8ddJ
=
8ggL
8eeJ
4dd
8cc#L
8ddJ
=
8bL
8aJ
4.a
8g
=
8f#
4.dd
8r
8a
=
8aL
8ddJ
4dd
8cc#L
8ddJ
=
8ggL
8eeJ
4dd
8cc#L
8ddJ
=
8bL
8aJ
4.a
8g
!!linebreak:original
=
8f#
4.dd
8r
8a
=
8aL
8f#J
4a
4ccn
=
8bL
8gJ
4.b
8cc#X
=
8ddL
8bJ
8ggL
8ff#J
8eeL
8ddJ
=
8cc#
4.ee
8r
8a
=
8gL
8f#J
4e
4d
=
8ggL
8ff#J
4ff#
8eeL
8ddJ
!!linebreak:original
=
8ggL
8bJ
8ddL
8cc#J
8bL
8aJ
=
8a
4dd
8r
4r
=||
*M3/4
8a
=
8aL
8ddJ
4dd
8cc#L
8ddJ
=
8ggL
8eeJ
4dd
8cc#L
8ddJ
=
8bL
8aJ
4.a
8g
=
8f#
4.dd
8r
8a
!!linebreak:original
=
8aL
8ddJ
4dd
8cc#L
8ddJ
=
8ggL
8eeJ
4dd
8cc#L
8ddJ
=
8bL
8aJ
4.a
8g
=
8f#
4.dd
8r
8a
=
8aL
8f#J
4a
4ccn
=
8bL
8gJ
4.b
8cc#X
=
8ddL
8bJ
8ggL
8ff#J
8eeL
8ddJ
!!linebreak:original
=
8cc#
4.ee
8r
8a
=
8gL
8f#J
4e
4d
=
8ggL
8ff#J
4ff#
8eeL
8ddJ
=
8ggL
8bJ
8ddL
8cc#J
8bL
8aJ
=
8a
4dd
8r
4r
=||
*-
